packages/tokens/icons/enterprise/size24Px.svg

<svg viewBox="0 0 24 24" fill="none" xmlns="http://www.w3.org/2000/svg" width="1em" height="1em"><path d="M4.5 13C4.5 12.1716 5.17157 11.5 6 11.5H7.5V20.5H5C4.72386 20.5 4.5 20.2761 4.5 20L4.5 13Z" stroke="currentColor"/><path d="M16.5 8.5H18C18.8284 8.5 19.5 9.17157 19.5 10V20C19.5 20.2761 19.2761 20.5 19 20.5H16.5V8.5Z" stroke="currentColor"/><path d="M7.5 5C7.5 4.17157 8.17157 3.5 9 3.5L15 3.5C15.8284 3.5 16.5 4.17157 16.5 5V20.5H7.5L7.5 5Z" stroke="currentColor"/><rect x="9.5" y="13.5" width="1" height="1" rx="0.5" stroke="currentColor"/><rect x="9.5" y="17.5" width="1" height="1" rx="0.5" stroke="currentColor"/><rect x="9.5" y="9.5" width="1" height="1" rx="0.5" stroke="currentColor"/><rect x="9.5" y="5.5" width="1" height="1" rx="0.5" stroke="currentColor"/><rect x="13.5" y="13.5" width="1" height="1" rx="0.5" stroke="currentColor"/><rect x="13.5" y="17.5" width="1" height="1" rx="0.5" stroke="currentColor"/><rect x="13.5" y="9.5" width="1" height="1" rx="0.5" stroke="currentColor"/><rect x="13.5" y="5.5" width="1" height="1" rx="0.5" stroke="currentColor"/></svg>

<svg xmlns="http://www.w3.org/2000/svg" fill="none" viewBox="0 0 24 24" width="1em" height="1em"><path stroke="currentColor" d="M4.5 13A1.5 1.5 0 0 1 6 11.5h1.5v9H5a.5.5 0 0 1-.5-.5v-7Zm12-4.5H18a1.5 1.5 0 0 1 1.5 1.5v10a.5.5 0 0 1-.5.5h-2.5v-12ZM7.5 5A1.5 1.5 0 0 1 9 3.5h6A1.5 1.5 0 0 1 16.5 5v15.5h-9V5Z"/><rect width="1" height="1" x="9.5" y="13.5" stroke="currentColor" rx=".5"/><rect width="1" height="1" x="9.5" y="17.5" stroke="currentColor" rx=".5"/><rect width="1" height="1" x="9.5" y="9.5" stroke="currentColor" rx=".5"/><rect width="1" height="1" x="9.5" y="5.5" stroke="currentColor" rx=".5"/><rect width="1" height="1" x="13.5" y="13.5" stroke="currentColor" rx=".5"/><rect width="1" height="1" x="13.5" y="17.5" stroke="currentColor" rx=".5"/><rect width="1" height="1" x="13.5" y="9.5" stroke="currentColor" rx=".5"/><rect width="1" height="1" x="13.5" y="5.5" stroke="currentColor" rx=".5"/></svg>
